art/logos/psx-w.svg

<svg xmlns="http://www.w3.org/2000/svg" width="567.429" height="113.032" xml:space="preserve">
    <path d="M165.884 28.918v57.54h10.078V35.095h6.186c4.461 0 6.475.12 7.233.437 1.496.625 3.036 2.529 3.667 4.521.331 1.047.604 3.313.701 5.831.2 5.154-.398 8.356-1.971 10.433-1.641 2.168-2.645 2.51-7.284 2.51h-3.982v6.246l6.257-.121 6.258-.121 2.214-1.047c4.045-1.908 6.982-5.811 8.167-10.84.662-2.808.652-9.086-.021-12.099-.646-2.896-1.991-5.813-3.504-7.579-.633-.738-1.857-1.797-2.712-2.347-2.933-1.882-4.062-2.001-18.356-2.001zm44.535 0v57.54h10.077v-57.54h-5.039zm126.372 0c-4.514.001-9.158.16-10.32.346-2.623.418-5.682 1.805-7.416 3.372-1.748 1.579-3.236 3.949-4.043 6.44-.502 1.548-.66 2.959-.68 5.933-.029 4.103.316 5.851 1.727 8.614.916 1.798 3.361 4.393 5.039 5.363 1.949 1.13 4.441 1.728 8.727 2.072 3.26.264 4.02.426 5.08 1.129.834.551 1.564 1.453 2.184 2.711.869 1.771.918 2.142.914 5.953-.004 3.801-.057 4.176-.896 5.771-.566 1.084-1.385 2.032-2.242 2.602l-1.354.895-8.563.103-8.553.092v6.145h9.73c5.92 0 10.412-.146 11.459-.367 3.984-.838 7.299-3.42 8.908-6.938 1.355-2.963 1.834-6.008 1.656-10.576-.188-4.816-.9-7.44-2.824-10.32-2.391-3.575-5.064-4.801-11.855-5.423-2.512-.23-5.086-.635-5.719-.904-1.398-.592-2.705-2.082-3.281-3.738-.568-1.633-.561-6.361.021-8.359.57-1.973 2.305-3.79 4.135-4.338.883-.266 3.852-.396 8.848-.396H345v-6.18h-8.209zm115.806 0v8.453h10.078v-8.453h-5.039zm-96.902 6.502.104 20.723c.09 20.398.105 20.754.803 22.604.391 1.033 1.227 2.58 1.857 3.443 1.293 1.76 2.973 2.994 5.1 3.738 1.023.359 2.762.498 6.064.51l4.633.02v-6.176h-3.027c-2.881 0-3.07-.039-3.891-.895-.508-.529-1.006-1.563-1.207-2.52-.221-1.033-.313-6.406-.256-14.791l.092-13.165 5.445-.092 5.445-.092V42.571h-11.052V35.42h-5.049zm69.596 0v20.469c0 19.797.023 20.54.672 22.512.771 2.348 2.338 4.672 4.043 5.973.65.498 1.939 1.166 2.863 1.482 1.289.445 2.73.582 6.156.59l4.469.01V80.28h-2.885c-2.41 0-3.02-.104-3.727-.662-.467-.365-.996-1.205-1.18-1.867-.205-.74-.336-6.584-.336-15.106V48.748h11.074l-.094-3.007-.092-3.008-5.445-.09-5.441-.093v-7.13h-5.039zm-8.889 7.069-10.758.174c-11.568.178-12.766.32-16.162 2.042-3.799 1.925-6.447 5.663-7.648 10.788-.502 2.138-.59 3.979-.59 12.109 0 9.23.027 9.661.742 11.428 1.441 3.561 3.586 5.76 6.674 6.826 1.361.471 2.781.58 7.457.588l5.771.012v-6.178h-4.043c-3.828 0-4.088-.047-4.998-.813-.602-.506-1.092-1.35-1.32-2.256-.453-1.793-.475-15.937-.031-19.361.631-4.865 1.727-7.146 4.014-8.371.787-.42 2.146-.57 5.975-.67l4.957-.132V86.456h10.402V74.315c0-6.674-.104-16.566-.225-21.982zM263.73 42.5l-10.808.162c-11.746.181-13.433.396-16.64 2.113-9.476 5.746-11.593 31.145-4.602 38.511 1.172 1.192 3.117 2.368 4.743 2.864.447.138 3.481.259 6.745.272l5.932.031V80.28h-4.154c-4.686 0-5.303-.221-6.186-2.234-.395-.897-.549-2.662-.65-7.416-.146-6.756.324-14.086 1.056-16.52.657-2.185 1.881-3.863 3.321-4.57 1.052-.516 2.019-.613 6.125-.62l4.875-.011.082 18.773.082 18.771h10.078v-21.98zm10.85.071c-2.928 0-5.319.037-5.313.082.004.045 3.346 9.857 7.426 21.811l7.416 21.738-4.176 10.77c-2.295 5.927-4.175 10.818-4.175 10.869 0 .05 1.993.05 4.429 0l4.43-.092 12.951-32.508c7.127-17.879 12.963-32.542 12.963-32.588.002-.045-2.102-.082-4.684-.082-3.404 0-4.766.113-4.947.408-.137.223-2.627 6.543-5.525 14.049-2.897 7.504-5.397 13.688-5.565 13.744-.17.057-2.472-6.266-5.108-14.049l-4.796-14.152zm178.017 0v43.884h10.078V42.571h-5.039zm60.951.162-.094 21.861h.012l-.092 21.861H523.786V48.676l4.957.133c5.262.137 6.141.356 7.619 1.939 1.158 1.24 1.986 3.499 2.355 6.439.191 1.539.348 8.603.348 16.01v13.259h10.074l-.01-12.922c-.002-13.705-.242-16.957-1.563-20.673-1.797-5.053-5.104-8.049-10.482-9.508-1.779-.483-3.68-.567-12.811-.59zm-25.478.092c-2.842 0-5.674.357-7.709 1.057-2.709.932-4.41 2.023-6.117 3.921-1.852 2.06-3.193 4.849-3.98 8.259-.48 2.09-.596 3.845-.566 8.938.025 5.359.133 6.729.711 8.849.979 3.596 2.26 6.017 4.205 7.985 1.916 1.938 4.748 3.422 7.936 4.146 1.434.324 3.422.427 6.461.345 5.238-.14 7.73-.814 10.787-2.904 2.563-1.752 4.5-4.517 5.598-7.996 1.57-4.967 1.846-13.156.641-19.199-.586-2.936-2.01-6.119-3.598-8.056-1.492-1.821-3.936-3.418-6.551-4.287-2.115-.701-4.976-1.058-7.818-1.058zm.123 6.054c1.475 0 2.953.285 4.113.873 1.514.768 2.465 2.104 3.291 4.632.541 1.653.676 3.158.803 8.625.166 7.141-.162 10.506-1.27 13.043-.781 1.793-2.045 3.186-3.434 3.779-.594.254-2.156.446-3.605.446-2.055 0-2.844-.146-3.992-.75-.902-.478-1.773-1.295-2.336-2.205-1.469-2.37-1.953-5.479-1.973-12.483-.016-6.668.328-9.348 1.557-12.06.416-.92 1.256-2.043 1.879-2.52 1.184-.903 3.07-1.38 4.967-1.38z" style="stroke:none;stroke-opacity:1;fill:#f2f2f2"/>
    <path style="fill:#f2f2f2;stroke:none" d="M559.92 74.635c-3.46.341-6.22 4.127-5.197 7.556.832 3.727 5.489 5.797 8.81 3.912 3.548-1.687 4.426-6.908 1.636-9.661-1.32-1.443-3.192-2.094-5.128-1.817-.121.01.085-.025-.121.01zm.15 1.357c1.66.078 3.495.613 4.416 2.154 1.809 2.52.163 6.463-2.894 6.965-2.954.723-5.987-2.148-5.407-5.137.248-1.929 1.53-3.645 3.456-3.904.382-.078.187-.04.43-.078z"/>
    <path fill="#DE0029" d="m80.521 23.506-.099 89.525-23.986-7.801V0l30.618 8.096c19.6 5.267 31.592 15.507 31.398 33.45-.195 20.873-9.849 29.257-28.667 23.796V24.188c-.002-4.976-9.264-5.267-9.264-.682z"/>
    <path fill="#F3C202" d="m45.416 87.87-11.31 3.805c-7.315 2.537-13.555-3.412-6.827-5.854l5.46-1.947-20.575-6.537C5.826 79.485-.124 84.067.268 90.505c.39 6.533 15.31 8.096 26.815 9.947 10.726 1.754 20.477.779 29.351-2.342v-6.73l-11.018-3.51zm35.2 25.162 20.965-7.313-21.16-6.729v13.558l.195.484z"/>
    <path fill="#326DB3" d="m136.394 93.431.39-.099c9.166-3.218 13.066-7.707 12.091-11.898-1.56-7.021-12.773-10.826-30.033-12.094-12.384-.877-24.572 1.854-36.468 5.947l-1.95.686 21.355 6.633 12.48-4.197c13.067-2.436 18.333 1.854 5.755 5.854l-6.242 2.146 22.622 7.022zM56.436 62.418l-9.459 3.217 9.46 2.926v-6.143z"/>
    <path fill="#00AA9E" d="m101.582 105.717 34.812-12.286-22.624-7.022-33.348 11.41v1.17l21.16 6.728zM56.436 84.165 45.417 87.87l11.02 3.512v-7.217zm23.985 5.755V75.975l21.355 6.631-21.355 7.314zM32.74 83.874l23.696-8.485v-6.826l-9.459-2.927-34.324 11.605c-.097 0-.292.096-.487.096l20.574 6.537z"/>
    <path d="M563.163 83.502c-.076 0-.151-.174-.151-.26 0-.087-.076-.261-.076-.522v-.869c0-.434-.075-.695-.226-.869-.075-.173-.226-.26-.376-.347.15-.174.301-.26.452-.522.15-.26.226-.608.226-1.042 0-.782-.302-1.39-.83-1.651-.3-.174-.677-.26-1.13-.26h-2.712v6.777h.98v-2.78h1.582c.301 0 .527 0 .603.086.226.087.301.348.301.695l.076 1.043c0 .26 0 .434.075.521 0 .087.075.174.075.26l.076.088h1.13l-.075-.348zm-1.206-4.344c0 .347-.075.608-.226.782-.15.173-.452.26-.754.26h-1.657V78.29h1.733c.226 0 .452 0 .527.087.302.087.377.347.377.782" style="stroke-width:.93123859;fill:#f2f2f2"/>
</svg>

<?xml version="1.0" encoding="UTF-8" standalone="no"?>
<!-- Created by ERK -->

<svg
   width="567.429"
   height="113.032"
   xml:space="preserve"
   version="1.1"
   id="svg7"
   sodipodi:docname="psx-w.svg"
   inkscape:version="1.4 (86a8ad7, 2024-10-11)"
   xmlns:inkscape="http://www.inkscape.org/namespaces/inkscape"
   xmlns:sodipodi="http://sodipodi.sourceforge.net/DTD/sodipodi-0.dtd"
   xmlns="http://www.w3.org/2000/svg"
   xmlns:svg="http://www.w3.org/2000/svg"><defs
   id="defs7" /><sodipodi:namedview
   id="namedview7"
   pagecolor="#ffffff"
   bordercolor="#000000"
   borderopacity="0.25"
   inkscape:showpageshadow="2"
   inkscape:pageopacity="0.0"
   inkscape:pagecheckerboard="true"
   inkscape:deskcolor="#d1d1d1"
   inkscape:zoom="3.4048312"
   inkscape:cx="283.71451"
   inkscape:cy="56.537311"
   inkscape:window-width="3840"
   inkscape:window-height="2066"
   inkscape:window-x="-11"
   inkscape:window-y="-11"
   inkscape:window-maximized="1"
   inkscape:current-layer="svg7" />
    <path
   d="M165.884 28.918v57.54h10.078V35.095h6.186c4.461 0 6.475.12 7.233.437 1.496.625 3.036 2.529 3.667 4.521.331 1.047.604 3.313.701 5.831.2 5.154-.398 8.356-1.971 10.433-1.641 2.168-2.645 2.51-7.284 2.51h-3.982v6.246l6.257-.121 6.258-.121 2.214-1.047c4.045-1.908 6.982-5.811 8.167-10.84.662-2.808.652-9.086-.021-12.099-.646-2.896-1.991-5.813-3.504-7.579-.633-.738-1.857-1.797-2.712-2.347-2.933-1.882-4.062-2.001-18.356-2.001zm44.535 0v57.54h10.077v-57.54h-5.039zm126.372 0c-4.514.001-9.158.16-10.32.346-2.623.418-5.682 1.805-7.416 3.372-1.748 1.579-3.236 3.949-4.043 6.44-.502 1.548-.66 2.959-.68 5.933-.029 4.103.316 5.851 1.727 8.614.916 1.798 3.361 4.393 5.039 5.363 1.949 1.13 4.441 1.728 8.727 2.072 3.26.264 4.02.426 5.08 1.129.834.551 1.564 1.453 2.184 2.711.869 1.771.918 2.142.914 5.953-.004 3.801-.057 4.176-.896 5.771-.566 1.084-1.385 2.032-2.242 2.602l-1.354.895-8.563.103-8.553.092v6.145h9.73c5.92 0 10.412-.146 11.459-.367 3.984-.838 7.299-3.42 8.908-6.938 1.355-2.963 1.834-6.008 1.656-10.576-.188-4.816-.9-7.44-2.824-10.32-2.391-3.575-5.064-4.801-11.855-5.423-2.512-.23-5.086-.635-5.719-.904-1.398-.592-2.705-2.082-3.281-3.738-.568-1.633-.561-6.361.021-8.359.57-1.973 2.305-3.79 4.135-4.338.883-.266 3.852-.396 8.848-.396H345v-6.18h-8.209zm115.806 0v8.453h10.078v-8.453h-5.039zm-96.902 6.502.104 20.723c.09 20.398.105 20.754.803 22.604.391 1.033 1.227 2.58 1.857 3.443 1.293 1.76 2.973 2.994 5.1 3.738 1.023.359 2.762.498 6.064.51l4.633.02v-6.176h-3.027c-2.881 0-3.07-.039-3.891-.895-.508-.529-1.006-1.563-1.207-2.52-.221-1.033-.313-6.406-.256-14.791l.092-13.165 5.445-.092 5.445-.092V42.571h-11.052V35.42h-5.049zm69.596 0v20.469c0 19.797.023 20.54.672 22.512.771 2.348 2.338 4.672 4.043 5.973.65.498 1.939 1.166 2.863 1.482 1.289.445 2.73.582 6.156.59l4.469.01V80.28h-2.885c-2.41 0-3.02-.104-3.727-.662-.467-.365-.996-1.205-1.18-1.867-.205-.74-.336-6.584-.336-15.106V48.748h11.074l-.094-3.007-.092-3.008-5.445-.09-5.441-.093v-7.13h-5.039zm-8.889 7.069-10.758.174c-11.568.178-12.766.32-16.162 2.042-3.799 1.925-6.447 5.663-7.648 10.788-.502 2.138-.59 3.979-.59 12.109 0 9.23.027 9.661.742 11.428 1.441 3.561 3.586 5.76 6.674 6.826 1.361.471 2.781.58 7.457.588l5.771.012v-6.178h-4.043c-3.828 0-4.088-.047-4.998-.813-.602-.506-1.092-1.35-1.32-2.256-.453-1.793-.475-15.937-.031-19.361.631-4.865 1.727-7.146 4.014-8.371.787-.42 2.146-.57 5.975-.67l4.957-.132V86.456h10.402V74.315c0-6.674-.104-16.566-.225-21.982zM263.73 42.5l-10.808.162c-11.746.181-13.433.396-16.64 2.113-9.476 5.746-11.593 31.145-4.602 38.511 1.172 1.192 3.117 2.368 4.743 2.864.447.138 3.481.259 6.745.272l5.932.031V80.28h-4.154c-4.686 0-5.303-.221-6.186-2.234-.395-.897-.549-2.662-.65-7.416-.146-6.756.324-14.086 1.056-16.52.657-2.185 1.881-3.863 3.321-4.57 1.052-.516 2.019-.613 6.125-.62l4.875-.011.082 18.773.082 18.771h10.078v-21.98zm10.85.071c-2.928 0-5.319.037-5.313.082.004.045 3.346 9.857 7.426 21.811l7.416 21.738-4.176 10.77c-2.295 5.927-4.175 10.818-4.175 10.869 0 .05 1.993.05 4.429 0l4.43-.092 12.951-32.508c7.127-17.879 12.963-32.542 12.963-32.588.002-.045-2.102-.082-4.684-.082-3.404 0-4.766.113-4.947.408-.137.223-2.627 6.543-5.525 14.049-2.897 7.504-5.397 13.688-5.565 13.744-.17.057-2.472-6.266-5.108-14.049l-4.796-14.152zm178.017 0v43.884h10.078V42.571h-5.039zm60.951.162-.094 21.861h.012l-.092 21.861H523.786V48.676l4.957.133c5.262.137 6.141.356 7.619 1.939 1.158 1.24 1.986 3.499 2.355 6.439.191 1.539.348 8.603.348 16.01v13.259h10.074l-.01-12.922c-.002-13.705-.242-16.957-1.563-20.673-1.797-5.053-5.104-8.049-10.482-9.508-1.779-.483-3.68-.567-12.811-.59zm-25.478.092c-2.842 0-5.674.357-7.709 1.057-2.709.932-4.41 2.023-6.117 3.921-1.852 2.06-3.193 4.849-3.98 8.259-.48 2.09-.596 3.845-.566 8.938.025 5.359.133 6.729.711 8.849.979 3.596 2.26 6.017 4.205 7.985 1.916 1.938 4.748 3.422 7.936 4.146 1.434.324 3.422.427 6.461.345 5.238-.14 7.73-.814 10.787-2.904 2.563-1.752 4.5-4.517 5.598-7.996 1.57-4.967 1.846-13.156.641-19.199-.586-2.936-2.01-6.119-3.598-8.056-1.492-1.821-3.936-3.418-6.551-4.287-2.115-.701-4.976-1.058-7.818-1.058zm.123 6.054c1.475 0 2.953.285 4.113.873 1.514.768 2.465 2.104 3.291 4.632.541 1.653.676 3.158.803 8.625.166 7.141-.162 10.506-1.27 13.043-.781 1.793-2.045 3.186-3.434 3.779-.594.254-2.156.446-3.605.446-2.055 0-2.844-.146-3.992-.75-.902-.478-1.773-1.295-2.336-2.205-1.469-2.37-1.953-5.479-1.973-12.483-.016-6.668.328-9.348 1.557-12.06.416-.92 1.256-2.043 1.879-2.52 1.184-.903 3.07-1.38 4.967-1.38z"
   style="stroke:none;stroke-opacity:1;fill:#ffffff"
   id="path1"
   inkscape:label="PlayStation" />
    <path
   style="fill:#ffffff;stroke:none"
   d="M559.92 74.635c-3.46.341-6.22 4.127-5.197 7.556.832 3.727 5.489 5.797 8.81 3.912 3.548-1.687 4.426-6.908 1.636-9.661-1.32-1.443-3.192-2.094-5.128-1.817-.121.01.085-.025-.121.01zm.15 1.357c1.66.078 3.495.613 4.416 2.154 1.809 2.52.163 6.463-2.894 6.965-2.954.723-5.987-2.148-5.407-5.137.248-1.929 1.53-3.645 3.456-3.904.382-.078.187-.04.43-.078z"
   id="path2"
   inkscape:label="Circle" />
    <path
   d="m 563.163,83.502 c -0.076,0 -0.151,-0.174 -0.151,-0.26 0,-0.087 -0.076,-0.261 -0.076,-0.522 v -0.869 c 0,-0.434 -0.075,-0.695 -0.226,-0.869 -0.075,-0.173 -0.226,-0.26 -0.376,-0.347 0.15,-0.174 0.301,-0.26 0.452,-0.522 0.15,-0.26 0.226,-0.608 0.226,-1.042 0,-0.782 -0.302,-1.39 -0.83,-1.651 -0.3,-0.174 -0.677,-0.26 -1.13,-0.26 h -2.712 v 6.777 h 0.98 v -2.78 h 1.582 c 0.301,0 0.527,0 0.603,0.086 0.226,0.087 0.301,0.348 0.301,0.695 l 0.076,1.043 c 0,0.26 0,0.434 0.075,0.521 0,0.087 0.075,0.174 0.075,0.26 l 0.076,0.088 h 1.13 z m -1.206,-4.344 c 0,0.347 -0.075,0.608 -0.226,0.782 -0.15,0.173 -0.452,0.26 -0.754,0.26 h -1.657 v -1.91 h 1.733 c 0.226,0 0.452,0 0.527,0.087 0.302,0.087 0.377,0.347 0.377,0.782"
   style="display:inline;fill:#ffffff;stroke-width:0.931239"
   id="path7"
   inkscape:label="R" /><path
   fill="#DE0029"
   d="m80.521 23.506-.099 89.525-23.986-7.801V0l30.618 8.096c19.6 5.267 31.592 15.507 31.398 33.45-.195 20.873-9.849 29.257-28.667 23.796V24.188c-.002-4.976-9.264-5.267-9.264-.682z"
   id="path3"
   inkscape:label="RedP" />
    <path
   fill="#F3C202"
   d="m45.416 87.87-11.31 3.805c-7.315 2.537-13.555-3.412-6.827-5.854l5.46-1.947-20.575-6.537C5.826 79.485-.124 84.067.268 90.505c.39 6.533 15.31 8.096 26.815 9.947 10.726 1.754 20.477.779 29.351-2.342v-6.73l-11.018-3.51zm35.2 25.162 20.965-7.313-21.16-6.729v13.558l.195.484z"
   id="path4"
   inkscape:label="YellowS" />
    
    <path
   fill="#00aa9e"
   d="M 101.582,105.717 136.394,93.431 113.77,86.409 80.422,97.819 v 1.17 z M 56.436,84.165 45.417,87.87 56.437,91.382 V 84.165 Z M 80.421,89.92 V 75.975 l 21.355,6.631 z M 32.74,83.874 56.436,75.389 V 68.563 L 46.977,65.636 12.653,77.241 c -0.097,0 -0.292,0.096 -0.487,0.096 z"
   id="path6"
   style="display:inline"
   inkscape:label="GreenS" /><path
   fill="#326db3"
   d="m 136.394,93.431 0.39,-0.099 C 145.95,90.114 149.85,85.625 148.875,81.434 147.315,74.413 136.102,70.608 118.842,69.34 106.458,68.463 94.27,71.194 82.374,75.287 l -1.95,0.686 21.355,6.633 12.48,-4.197 c 13.067,-2.436 18.333,1.854 5.755,5.854 l -6.242,2.146 z m -79.958,-31.013 -9.459,3.217 9.46,2.926 v -6.143 z"
   id="path5"
   style="display:inline"
   inkscape:label="BlueS" />
    
</svg>
